X:19289
T:nde vas Alfonso XII
R:Romance
C:Tradicional
S:Msica Tradicional Asturiana, (C) Tello & Tito. Asturies, 2001.
S:http://pagina.de/MusTradAst <telloytito@asturies.org>
N:Romancero vulgar usado para el corro
A:Asturies
Z:DyC en Teberga
M:3/4
L:1/8
Q:1/4=80
K:Dm
D>F
|: A2 A2 D>F|A2 A2 D>F|A3 G BA|G4 G>A|
|B2 B2 A>G|A2 A2 E>F|G3 E FE|[1 D2 D>F :|[2 D2 z4|
